X:1
T:Title
%%score { ( 1 4 ) | ( 2 3 ) }
L:1/8
Q:1/4=106
M:4/4
K:D
V:1 treble nm="Grand Piano"
V:4 treble 
V:2 bass 
V:3 bass 
V:1
 [FA]2 [GB]2 [FA]2 [DF][EG] | [FA]2 [GB]2 [FA]FDE | F2 G2 [DF]2 [CE]2 | D2 .A,2 .D2 .F2 | %4
w: Wm.~J.~Kirkpatrick * * * *||||
 [A,FA]2 [GB]2 [FA]2 [DF][EG] | [FA]2 [GB]2 [FA]FDE | F2 G2 [A,DF]2[K:bass] [G,CE]2 | [F,D]6 z2 | %8
w: ||||
 [A,CE]2 [A,DF]2 [A,CE]2 [A,C]D | [A,CE]2 [A,EA]2 cBAB | c2 B2 [EA]2 [Ec]2 | B4 z4 | A2 E2 A2 c2 | %13
w: |||||
 [Ge]2 [Fd]2 cBAB | c2 B2 F2 ^G2 | [A,CA]4 z4 | [A,FA]2 z2 [A,FA][A,EG][A,DF][A,EG] | %17
w: ||||
 [DFA]2 [Fd]2 [Fd]2 [FA]2 | B2 B2 B3 [AB] | [Ge]2 [E^Gd]2 [EAc]2 [=GB]2 | %20
w: |||
 [DFA]2 z2 [A,FA][A,EG][A,DF][A,EG] | [DFA]2 [Fd]2 [Fd]2 [FA]2 | B2 B2 e3 d | d2 [Ec]2 [Fd]4 |] %24
w: ||||
V:2
 [D,A,]2 [D,D]2 [D,D]2 [D,A,]2 | [D,A,]2 [D,D]2 [D,D][D,A,D][F,A,][G,B,D] | %2
 [A,D]2 [A,E]2 [A,,A,]2 [A,,G,]2 | [D,F,]2 .A,,2 .D,2 .F,2 | D,2 [D,D]2 [D,D]2 [D,A,]2 | %5
 [D,A,]2 [D,D]2 [D,D][D,A,D][F,A,][G,B,D] | [A,D]2 [A,E]2 A,,2 A,,2 | D,6 z2 | %8
 A,,2 A,,2 A,,2 z B, | A,,2 C,2 [E,^G,E][E,G,E][F,CE][G,B,E] | [A,E]2 [E,^G,E]2 [C,A,]2 [A,,A,]2 | %11
 E2 z2 z4 | [A,CE]2 [A,C]2 [A,CE]2 [A,E]2 | [C,A,]2 [D,A,]2 [E,^G,E][E,G,E][F,A,^D][F,A,D] | %14
 [E,A,D]2 [E,^G,D]2 [E,B,D]2 [E,B,D]2 | z2 G,2 F,2 E,2 | D,2 z2 D,D,D,D, | %17
 D,2 [D,A,]2 [D,A,]2 [D,D]2 | [G,DG]2 [G,DG]2 [G,DG]3[K:bass] [F,B,] | [E,B,]2 E,2 A,2 A,2 | %20
 D,2 z2 D,D,D,D, | D,2 [D,A,]2 [D,A,]2 [D,D]2 | [G,DG]2 [G,DG]2 [G,B,G]3 [G,B,G] | %23
 [A,F]2[K:bass] [A,,A,]2 [D,A,]4 |] %24
V:3
 x8 | x8 | x8 | x8 | x8 | x8 | x8 | x8 | z4 z2 A,,2 | x8 | x8 | [E,^G,]4 z4 | x8 | x8 | x8 | %15
 A,,4 z4 | x8 | x8 | x7[K:bass] x | x8 | x8 | x8 | x8 | x2[K:bass] x6 |] %24
V:4
 x8 | x8 | x8 | x8 | x8 | x8 | x6[K:bass] x2 | x8 | x8 | x8 | x8 | z2 EE E2 E2 | x8 | x8 | x8 | %15
 x8 | x8 | x8 | x8 | x8 | x8 | x8 | x8 | x8 |] %24

